X: 23223
T: Leaping Salmon, The
R: reel
M: 4/4
K: Dmajor
|:A3F ABde|fede fe e2|A2 ef dedB|AFDE FE E2|
A3F ABde|fede fe e2|A2 ef dedB|AFEA FD D2:|
|:a3b afbf|afef dB B2|(3ABA FA ABde|fede fe e2|
a3b afbf|afef dB B2|(3ABA FA ABde|AFEA FD D2:|

